X: 12
T:Dingle Regatta
R:48-bar jig
M:6/8
K:G
B/2c/2|"G"d^cd e2d|"G"BAB d2B|"D"A2A AGA|"G"B2A "D7"G2B|
"G"d^cd e2d|"Em"BAB d2B|"D7"A2A ABA|"G"G3 -G2:|
B|:"D7"d3 def|"G"g3 gfg|"D"a2a aga|"G"b2a gfe|
"D"d2d def|"G"g2g gfg|"D"a2g "D7"f2e|"D7"def "G"g2:|
d|:"G"gbg dgd|"G"BdB G2G|"D7"FGA DEF|"G"G2B def|
"G"gbg dgd|"G"BdB G2G|"D7"FGA DEF|"G"G3 -G2:|
